!!!!SEGMENT: pl-kk--kk-i-190--002_anonim--tristes-erant-apostoli.krn
!!!cenid: 17xx:2607
!!!COM: Anonim
!!!COM-rismID: pe30004985
!!!CDT:
!!!CNT:
!!!OTL: Tristes erant apostoli
!!!PDT:
!!!AGN: Sacred; Hymns
!!!YEC: Copyright 2022 Narodowy Instytut Fryderyka Chopina (https://polishscores.org)
!!!YEM: License CC-BY-4.0 (https://creativecommons.org/licenses/by/4.0)
!!!SMS-siglum: PL-Kk
!!!SMS-shelfmark: Kk.I.190
!!!SMS-variant:
!!!SMS-altvar:
!!!SMS-shelfwork: 002 W
!!!NIFC-rismSourceID: 1001152158
!!!NIFC-rismChildID: 1001152165
!!!NIFC-islandoraID: pl-kk:4020
!!!URL-pdf-islandora: https://repozytorium.nifc.pl/islandora/object/pl-kk:4020/datastream/PDF/view
!!!URL-scan: https://polish.musicsources.pl/pl/lokalizacje/galeria/rekopisy/5818/1 @EN{Scan on Polish Music Sources Website} @PL{Skany w portalu Dziedzictwo Muzyki Polskiej w otwartym dostępie}
!!!IIIF:
!!!ONB-nifc:
!!!AIN: 1 alto 1 bass 1 soprn 1 tenor
!!!key: d:dor
**kern	**text	**kern	**text	**kern	**text	**kern	**text
*part4	*part4	*part3	*part3	*part2	*part2	*part1	*part1
*staff4	*staff4	*staff3	*staff3	*staff2	*staff2	*staff1	*staff1
*ICvox	*	*ICvox	*	*ICvox	*	*ICvox	*
*Ibass	*	*Itenor	*	*Ialto	*	*Isoprn	*
*I"Baſso.	*	*I"Tenore	*	*I"Alto.	*	*I"Canto.	*
*I'B	*	*I'T	*	*I'A	*	*I'S	*
*clefF4	*	*clefC4	*	*clefC3	*	*clefC1	*
*k[]	*	*k[]	*	*k[]	*	*k[]	*
*d:dor	*	*d:dor	*	*d:dor	*	*d:dor	*
*M3/2	*	*M3/2	*	*M3/2	*	*M3/2	*
=1	=1	=1	=1	=1	=1	=1	=1
*2\right	*	*2\right	*	*2\right	*	*2\right	*
!!LO:TX:t=P:problem:oddech/cezura na różnej wysokości
!LO:TX:a:t=De Sctis Apostolis.	!	!LO:TX:a:t=De Sctis Apostolis.	!	!LO:TX:a:t=De Sctis Apostolis	!	!LO:TX:a:t=De apostolis.	!
(2D\	Tri-	1A	Tris-	1f	Triſ-	1dd	Triſ-
2F\)	.	.	.	.	.	.	.
2D\	-stes	2D/	-tes	2f\	-tes	2dd\	-tes
=2	=2	=2	=2	=2	=2	=2	=2
2D/	e-	2A\	e-	2f\	e-	2dd\	e-
2D/	-rant	2A\	-rant	2f\	-rant	2dd\	-rant
2C/	a-	[<2A\	a-	2e\	a-	2a\	a-
=3	=3	=3	=3	=3-	=3	=3	=3
1BB-X	-po-	2A\]	.	1f	-pos-	1dd	-pos-
.	.	2A\	-po-	.	.	.	.
2BB-/	-sto-	2G/	-sto-	2d\	-to-	2dd\	-to-
=4	=4	=4	=4	=4	=4	=4-	=4
1AA,	-li,	1A,	-li	1e,	-li	1cc#X,	-li
2FF/	de	2c\	de	2f\	de	2a\	de
=5	=5	=5	=5	=5	=5	=5	=5
2BB-X/	Chris-	2d\	Chris-	2f\	Chris-	2dd\	Chris-
2.BB-/	-ti	2.B-X\	-ti	2f\	-ti	2.dd\	-ti
.	.	.	.	2f\	a-	.	.
4BB-/	a-	4A\	a-	.	.	4dd\	a-
=6	=6	=6	=6	=6	=6	=6	=6
1C	-cer-	1G	-cer-	1e	-cer-	1ccn	-cer-
2AA/	-bo	[2A/	-bo	[<2f\	-bo	2cc\	-bo
=7	=7	=7	=7	=7	=7	=7	=7
2AA/	.	2A/]	.	2f\]	.	1cc	Fu-
2.C/	Fu-	2.G/	Fu-	2f\	Fu-	.	.
.	.	.	.	2e\	-ne-	2cc\	-ne-
4C/	-ne-	4G/	-ne-	.	.	.	.
=8-	=8	=8-	=8	=8-	=8	=8-	=8
1.FF	-re	1.A	-re	1.f	-re:	1.cc,	-re
=9	=9	=9	=9	=9	=9	=9	=9
2F\	Quem	2c\	quem	2f\	Quem	2cc\	Quem
2F\	mor-	2d\	mor-	2f\	mor-	2cc\	mor-
(4C/	-te	4c\	-te	(4e\	-te	2cc\	-te
!	!	!LO:TX:t=P:problem:custos z #	!	!	!	!	!
4D/)	.	4A\	.	4f\)	.	.	.
*custos:E	*	*custos:G	*	*	*	*	*
!LO:LB:g=original	!	!LO:LB:g=original	!	!LO:LB:g=original	!	!LO:LB:g=original	!
=10	=10	=10	=10	=10	=10	=10	=10
2.E\	cru-	1G#X	cru-	(2g#X\	cru-	1bn	cru-
.	.	.	.	2e\)	.	.	.
4D\	.	.	.	.	.	.	.
4C/	.	(4A\	.	2e\	-de-	2a\	-de-
4BB/	.	4B\)	-de-	.	.	.	.
=11	=11	=11	=11	=11-	=11	=11	=11
2AA/	-de-	2c\	.	1e	-liſ-	1a	-liſ-
2.E\	-liſ-	2.Bn\	-liſ-	.	.	.	.
.	.	.	.	2e\	-si-	2g#X/	-si-
4E\	-si-	4B\	-si-	.	.	.	.
=12-	=12	=12	=12	=12-	=12	=12-	=12
1.AA	-ma	1.c#X	-ma	1.e	-ma	1.a	-ma
=13	=13	=13	=13	=13	=13	=13	=13
2AA/	Ser-	2cn\	Ser-	2e\	ser-	2a\	ser-
2C/	-vi	2.G/	.	2.c\	-vi	2gn\	-vi
(4BB-X/	ne-	.	.	.	.	2g\	ne-
4AA/)	.	4A\	-vi	4c\	ne-	.	.
=14-	=14	=14	=14	=14-	=14	=14	=14
1GG	-câ-	1B-X	ne-	1d	-câ-	1g	-câ-
2GG/	-rant	2B-\	-câ-	2d,\	-rant	2g/	-rant
=15	=15	=15	=15	=15	=15	=15	=15
*	*ij	*	*	*	*	*	*ij
!	!	!LO:SIC:v:s=2B-\	!	!	!	!	!
2GG/	Ser-	2B\	-rant	2d\	Ser-	2b-X\	ser-
*	*	*	*ij	*	*	*	*
2BB-X/	-vi	2.F/	Ser-	2.d\	-vi	2b-\	-vi
4AA/	ne-	.	.	.	.	2b-\	ne-
4GG/	.	4G/	-vi	4e\	ne-	.	.
=16	=16	=16	=16	=16-	=16	=16	=16
2FF/	-câ-	2.A\	ne-	1f	-câ-	1a	-câ-
(2F\	-rant	.	.	.	.	.	.
.	.	4A\	-câ-	.	.	.	.
2G\)	.	4G/	-rant	2d\	-rant	2b-X\	-rant
*	*Xij	*	*Xij	*	*	*	*Xij
.	.	4F/	.	.	.	.	.
=17	=17	=17	=17	=17	=17	=17	=17
*	*	*	*	*	*ij	*	*
2A\	Ser-	2E/	Ser-	2c\	Ser-	2cc\	Ser-
2A\	-vi	2E/	-vi	2c\	-vi	2cc\	-vi
2E\	ne-	2e\	ne-	2e\	ne-	2bn\	ne-
=18-	=18	=18	=18	=18	=18	=18	=18
1A	-ca-	1c	-câ-	1e	-câ-	1a	-câ-
2D/	-rant	2d\	-rant	2f\	-rant	2a\	-rant
*	*	*	*	*	*Xij	*	*
=19	=19	=19	=19	=19	=19	=19	=19
2D\	im-	2d\	.	2f\	Im-	1a	im-
2.E\	.	2.Bn\i	im-	2.e\	.	.	.
.	.	.	.	.	.	2g#X/	-pij.
4E\	.	4B\	-pij.	4e\	-pij.	.	.
=20-	=20	=20-	=20	=20-	=20	=20-	=20
!LO:N:vis=1.	!	!	!	!	!	!	!
0AA	-pij.	0c#Xi	.	0e;	.	0a;	.
!LO:LB:g=original	!	!LO:LB:g=original	!	!LO:LB:g=original	!	!LO:LB:g=original	!
=22||	=22||	=22	=22	=22||	=22||	=22||	=22||
*M3/2	*	*M3/2	*	*M3/2	*	*M3/2	*
2D\	Ad	2d\	Ad	2r	.	2a\	Ad
!	!	!	!	!LO:TX:t=P:problem:# przed 2r	!	!	!
2D\	an-	2d\	an-	2f#X\	Ad	2a\	an-
2D\	-xi-	2d\	-xi-	2f#\	an-	2d/	-xi-
=23	=23	=23	=23	=23	=23	=23	=23
1G	-os	1d	-os	2g\	-xi-	1b-X	-os
.	.	.	.	2g\	-os	.	.
2C#X/	a-	2e\	A-	2e\	A-	[<2a\	A-
=24	=24	=24	=24	=24	=24	=24	=24
4D/	-po-	(2A\	-po-	4f\	-po-	2a\]	.
4C/	.	.	.	4e\	.	.	.
2.BB-X/	-sto-	2.d\)	.	2.d\	.	2a\	-po-
.	.	.	.	.	.	2g\	-sto-
4BB-/	-los	4d\	-sto-	4d\	-sto-	.	.
=25	=25	=25	=25	=25	=25	=25	=25
1AA,	.	1c#X,	-los	1e,	-los	1a,	-los
2F\	cur-	2cn\	Cur-	2f\	Cur-	2cc\	cur-
=26	=26	=26	=26	=26	=26	=26	=26
2BB-X/	-runt	2d\	-runt	2f\	-runt	1b-X,	-runt
2BB-/	.	2d\	sta-	2f\	.	.	.
2C/	sta-	2c\	-tim	2e\	sta-	2b-\	sta-
=27	=27	=27	=27	=27	=27	=27-	=27
*	*	*	*ij	*	*	*	*
(2.D\	-tim	2A\	sta-	2f\	-tim	1.a	-tim
!	!	!	!	!LO:SIC:v:s=2d\	!	!	!
.	.	2d\	-tim	2c\	.	.	.
*	*	*	*Xij	*	*	*	*
4E\)	.	.	.	.	.	.	.
2F\	dum	2c\	dum	[<2f\	dum	.	.
=28	=28	=28	=28	=28	=28	=28	=28
2AA/	.	1c	Nun-	2f\]	.	2a\	dum
2.C/	nun-	.	.	2f\	Nun-	2.g\	nun-
.	.	2c\	-ti-	2e\	-ti-	.	.
4C/	-ti-	.	.	.	.	4g\	-ti-
=29	=29	=29	=29	=29	=29	=29	=29
1FF,	-ae	1c,	-ae	1f,	-ae	1f,	-ae
2F\	Il-	2c\	Il-	2f\	Il-	2a\	Il-
=30	=30	=30	=30	=30	=30	=30	=30
1C#X	-lae	1c#X	-lae	1e	-lae	1a	-lae
2C#/	mi-	2e\	mi-	2e\	mi-	2a\	mi-
*	*	*custos:d	*	*custos:f	*	*	*
!LO:LB:g=original	!	!LO:LB:g=original	!	!LO:LB:g=original	!	!	!
=31	=31	=31	=31	=31	=31	=31	=31
2.D/	-can-	1d	-can-	(2.f\	-can-	1a	-can-
4C/	-tis	.	.	4e\)	.	.	.
2BB-X/	.	2G/	-tis	2d\	-tis	2dd\	-tis
!	!	!	!	!	!	!LO:LB:g=original	!
=32	=32	=32	=32	=32	=32	=32	=32
2.AA/	ob-	2.A\	ob-	2.e\	ob-	2.cc#X\	ob-
4AA/	-vi-	4A\	-vi-	4e\	-vi-	4cc#\	-vi-
2AA/	-a	2A\	-a	2e\	-a	2cc#\	-a
=33	=33	=33	=33	=33	=33	=33	=33
2C/	Chris-	2G/	Chris-	1.r	.	2ccn\	Chri-
2.BB-X/	.	(2.B-X\	.	.	.	2.g/	-sti
4AA/	-ti	4c\)	-ti	.	.	4a\	.
=34	=34	=34	=34	=34	=34	=34	=34
1GG	te-	1d	te-	2g\	Chris-	1b-X	te-
.	.	.	.	(2.d\	.	.	.
2GG/	-nent	2d\	-nent	.	.	2b-\	-nent
.	.	.	.	4e\)	-ti	.	.
=35	=35	=35	=35	=35	=35	=35	=35
*	*ij	*	*	*	*	*	*
2D\	Chris-	(2d\	(Chris)-	2f\	te-	2a\	Chris-
(2.F\	-ti	2.c\)	.	2f,\	-nent	2.f/	-ti
.	.	.	.	2f\	te-	.	.
4E\)	.	4c\	-ti	.	.	4g/	.
=36	=36	=36	=36	=36	=36	=36	=36
(2.D\	te-	2d\	te-	2.f\	.	(2.a\	te-
.	.	2A\	-nent	.	.	.	.
4E\)	.	.	.	8e\L	.	4g\)	.
.	.	.	.	8d\J	.	.	.
2F\	-nent	2A\	ves-	2c/	-nent	(4a\	-nent
*	*Xij	*	*	*	*	*	*
.	.	.	.	.	.	4b\)	.
=37	=37	=37	=37	=37	=37	=37	=37
4C/	Ves-	1A	-ti-	2e\	ves-	2cc\	ves-
4D/	.	.	.	.	.	.	.
2.E\	-ti-	.	.	2.e\	-ti-	2.bn\	-ti-
.	.	2G#X/	-gi-	.	.	.	.
4E\	-gi-	.	.	4e\	-gi-	4b\	-gi-
=38	=38	=38-	=38	=38-	=38	=38	=38
1.AA	-a	1.A	-a	1.e,	-a	1.a	-a
=39	=39	=39	=39	=39	=39	=39	=39
!	!	!	!	!LO:SIC:v:s=2d\	!	!	!
2D\	Chris-	2d\	Chris-	2e\	Chriſ-	1.r	.
2.AA/	.	2.cn\	-ti	2.c/	.	.	.
!	!	!LO:SIC:v:s=8B-\L	!	!	!	!	!
4BB-X/	-ti	8B\L	.	4d\	-ti	.	.
.	.	8A\J	.	.	.	.	.
=40	=40	=40	=40	=40-	=40	=40	=40
1C	te-	1G	te-	1e	te-	2cc\	Chris-
.	.	.	.	.	.	2.g\	-ti
2C/	-nent	2c\	-nent	2e\	-nent	.	.
.	.	.	.	.	.	4a\	.
!LO:LB:g=original	!	!LO:LB:g=original	!	!LO:LB:g=original	!	!	!
=41	=41	=41	=41	=41	=41	=41-	=41
*	*ij	*	*	*	*	*	*
!	!	!LO:SIC:v:s=2B-\	!	!	!	!	!
2GG/	Chris-	2B\	(Chris)-	2g\	Chri-	1b-Xi	te-
2.BB-X/	.	1G	-ti	2.d\	.	.	.
.	.	.	.	.	.	2b-\	-nent
4C/	-ti	.	.	4e\	-sti	.	.
!	!	!	!	!	!	!LO:LB:g=original	!
=42	=42	=42	=42	=42	=42	=42	=42
!	!	!	!	!LO:SIC:v:s=2f#\	!	!	!
2D\	te-	2F#X/	te-	2f\	te-	2a\	(Chris)-
!	!	!	!	!LO:SIC:v:s=2f#,\	!	!	!
2D,\	-nent	2F#,/	-nent	2f,\	-nent	2a\	-ti
*	*Xij	*	*	*	*	*	*
2F#X\	(Chris)-	[<2d\	te-	2a\	(Chris)-	2a\	te-
=43	=43	=43	=43	=43	=43	=43	=43
2G\	-ti	2.d\]	.	2g,\	-ti	2.b-X\	-nent
4GG/	te-	.	.	2g\	te-	.	.
4AA/	.	4c\	-nent	.	.	8a\L	.
.	.	.	.	.	.	8g\J	.
2BB-X/	-nent	2B-X\	Ves-	2f,\	-nent	2f/	Ves-
=44	=44	=44	=44	=44-	=44	=44	=44
2GG/	ve-	1d	-ti-	2e\	Ves-	2g/	.
2.AA/	-sti-	.	.	2.e\	-ti-	2.e/	-ti-
.	.	2c#X\	-gi-	.	.	.	.
4AA/	-gi-	.	.	4e\	-gi-	4a\	-gi-
=45-	=45	=45-	=45	=45-	=45	=45-	=45
1.D	-a	1.d	-a	1.f#X	-a	1.a	-a.
=46||	=46||	=46||	=46||	=46||	=46||	=46||	=46||
*M3/2	*	*M3/2	*	*M3/2	*	*M3/2	*
2r	.	2r	.	2r	.	2r	.
2D\	Ga-	2d\	Ga-	2f#X\	Ga-	2a\	Ga-
!LO:SIC:v:s=2D\	!	!	!	!	!	!	!
2D#\	-li-	2d\	-li-	2f#\	-li-	2a\	-li-
=47	=47	=47	=47	=47	=47	=47	=47
2G\	-le-	2d\	-le-	2g\	-le-	2b-X\	-le-
2G,\	-ae	2d\	-ae	2d,\	-ae	2cc\	-ae
2F\	ad	2A\	ad	2d\	ad	2dd\	ad
=48	=48	=48	=48	=48	=48	=48	=48
1En	al-	1G	al-	1e	al-	1cc#X	al-
2D\	-ta	2A\	-ta	2f\	-ta	2dd\	-ta
=49	=49	=49	=49	=49	=49	=49	=49
2.A\	mon-	2.A\	mon-	2.en\	mon-	2.cc#X\	mon-
4A\	-ti-	4A\	-ti-	4e\	-ti-	4cc#\	-ti-
2A\	-um	2A\	-um	2e\	-um	2cc#\	-um
!LO:LB:g=original	!	!LO:LB:g=original	!	!LO:LB:g=original	!	!LO:LB:g=original	!
=50	=50	=50	=50	=50	=50	=50	=50
2F\	se	2A/	se	2f\	se	2ccn\	Se
2F\	con-	2A/	con-	2f\	con-	2cc\	con-
2E\	-fe-	2G/	-fe-	2g\	-fe-	2cc\	-fe-
=51	=51	=51	=51	=51	=51	=51	=51
2.F\	-runt	1A	-runt	1f	-runt	(2.a\	-runt
4G\	.	.	.	.	.	4b\)	.
2A\	a-	2A\	A-	2e\	A-	[<2cc\	A-
=52	=52	=52	=52	=52	=52	=52	=52
2E\	-pos-	1G	-pos-	2e\	-po-	2cc\]	.
2.G\	-to-	.	.	2.d\	.	2cc\	-pos-
.	.	2G/	-to-	.	.	2b\	-to-
4GG/	.	.	.	4d\	-sto-	.	.
=53-	=53	=53	=53	=53-	=53	=53-	=53
1.C	-li;	1.G	-li	1.e	-li	1.cc	-li
=54	=54	=54	=54	=54	=54	=54	=54
2c\	Je-	2c\	Je-	2e\	Je-	2g\	Je-
2B-X\	-su-	2c\	-su-	2e\	-su-	2g\	-su-
2A\	-que	2c\	-que	2f#X\	-que	2a\	-que
=55	=55	=55	=55	=55-	=55	=55	=55
1G	vo-	1B-X	vo-	1g	Vo-	1b-X	vo-
2G\	-ti	2B-\	-ti	2g\	-ti,	2b-\	-ti
=56	=56	=56	=56	=56	=56	=56	=56
*	*ij	*	*	*	*	*	*
2G\	Je-	2B-X\	Je-	2d\	Je-	2b-X\	Je-
2F\	-su-	2G/	-su-	2d\	-su-	2b-\	-su-
2E\	-que	2G/	-q(ue)	2e\	-que	2cc\	-que
=57	=57	=57	=57	=57	=57	=57	=57
1D	vo-	4A\	vo-	2.f\	.	(2dd\	vo-
.	.	8B\L	.	.	.	.	.
.	.	8c\J	.	.	.	.	.
.	.	4d\	.	.	.	2a\)	.
.	.	4e\	.	4e\	.	.	.
2D\	-ti	2f\	.	4f\	.	2dd\	-ti
*	*Xij	*	*	*	*	*	*
.	.	.	.	4g\	Vo-	.	.
!	!	!	!	!	!	!LO:LB:g=original	!
=58	=58	=58	=58	=58	=58	=58	=58
2AA/	com-	2f\	-ti	2a\	-ti	1cc	Com-
2.C/	-po-	2.f\	com-	2.g\	com-	.	.
.	.	.	.	.	.	2cc\	-po-
4C/	-tes	4e\	-po-	4g\	-po-	.	.
=59	=59	=59-	=59	=59-	=59	=59	=59
1F,	.	1f,	-tes	1f,	-tes,	1cc,	-tes
2F\	al-	2A/	al-	2a\	al-	2cc\	al-
*	*	*	*	*custos:e	*	*	*
!LO:LB:g=original	!	!LO:LB:g=original	!	!LO:LB:g=original	!	!	!
=60	=60	=60	=60	=60	=60	=60	=60
2.C/	-mo	1G	-mo	2.e\	-mo	2.cc\	-mo
4D\	.	.	.	4f\	.	8b-\Li	.
.	.	.	.	.	.	8a\J	.
(4E\	be-	2c\	be-	4g\	be-	4g\	.
4F\)	.	.	.	8f\L	-an-	4a\	be-
.	.	.	.	8e\J	.	.	.
=61	=61	=61	=61	=61	=61	=61	=61
2G\	-a-	2B-X\	-an-	2d\	.	2b-X\	-an-
2G,\	-tur	2B-,\	-tur	2d,\	-tur	2b-,\	-tur
2G\	al-	2B-\	be-	2g\	be-	2dd\	al-
=62	=62	=62	=62	=62	=62	=62	=62
2.D\	-mo	1A	-an-	1fn	-an-	2.dd\	-mo
4E\	be-	.	.	.	.	8cc\L	.
.	.	.	.	.	.	8b\J	.
(4F\	.	2d\	-tur	2f,\	-t(ur)	4a\	.
4G\)	.	.	.	.	.	4b\	be-
=63	=63	=63	=63	=63-	=63	=63	=63
2A\	-a-	2c\	al-	2e\	al-	2cc\	-an-
2A,\	-t(ur)	2c\	-mo	2e\	-mo	2cc\,	-tur
*	*ij	*	*	*	*	*	*
2F\	al-	2A\	be-	2f\	be-	2dd\	be-
=64	=64	=64	=64	=64	=64	=64	=64
2.G\	-mo	2.B-X\	-an-	1d	-an-	(1b-X	-an-
4F\	be-	4A\	.	.	.	.	.
2E\	-a-	2G/	-tur	2e\	-t(ur)	2cc\)	.
=65	=65	=65	=65	=65-	=65	=65-	=65
2D,\	-t(ur)	2A,\	.	2f\	Lu-	2dd,\	-t(ur)
*	*Xij	*	*	*	*	*	*
2.A\	Lu-	2.A\	Lu-	2.e\	.	2dd\	Lu-
.	.	.	.	.	.	2cc#X\i	-mi-
4AA/	-mi-	4A\	-mi-	4e\	-mi-	.	.
=66-	=66	=66-	=66	=66	=66	=66-	=66
!	!	!LO:N:vis=0	!	!	!	!LO:N:vis=0	!
1.D	-ne.	1.A;	-ne	1.f#X	-ne.	1.dd;<	-ne
!	!	!	!	!	!	!LO:LB:g=original	!
=68||	=68||	=68||	=68||	=68||	=68||	=68-	=68
*M3/2	*	*M3/2	*	*M3/2	*	*M3/2	*
2D\	Ut	2d\	Ut	2A/	Ut	2a\	Ut
2D\	sis	2f\	sis	2d\	sis	2a\	sis
2C#X/	pe-	2e\	pe-	2e\	pe-	2a\	pe-
=69	=69	=69	=69	=69	=69	=69	=69
1D	-ren-	2d\	-ren-	2f\	-ren-	2a\	-ren-
.	.	1Bn	-ne	2.e\	.	2bn\	.
2G#X\	-ne	.	.	.	.	2b\	-ne
.	.	.	.	4d\	-ne	.	.
!	!	!LO:LB:g=original	!	!	!	!	!
=70	=70	=70	=70	=70	=70	=70	=70
2.A\	men-	2.A\	men-	2.c#X\i	men-	2.cc#X\	men-
4A\	-ti-	4B\	-ti-	4d\	-ti-	4cc#\	-ti-
2A\	-b(us)	2c#X\i	-b(us)	2e\	-b(us)	2cc#\	-b(us)
!LO:LB:g=original	!	!	!	!LO:LB:g=original	!	!	!
=71	=71	=71	=71	=71	=71	=71	=71
2F\	Paſ-	2A/	Paſ-	(4A/	Pas-	2ccn\	Paſ-
.	.	.	.	4B/)	.	.	.
2E\	-cha-	2Gn/	-cha-	(4c/	-cha-	2.cc\	-cha-
.	.	.	.	4d/)	.	.	.
2E\	-le	2G/	-le	(4c/	-le	.	.
.	.	.	.	4B/)	.	4cc\	-le
=72	=72	=72	=72	=72	=72	=72	=72
2.F\	Je-	2.A/	.	2.A/	Je-	1cc	Je-
4E\	.	4G/	.	8B/L	.	.	.
.	.	.	.	8c/J	.	.	.
2D\	-su	2F/	Je-	4d\	.	2dd\	-su
.	.	.	.	4e\	.	.	.
=73	=73	=73	=73	=73	=73	=73	=73
2AA/	Gau-	2F/	-su	2f\	-su	1cc	gau-
2.C/	.	2.G/	Gau-	2.f\	gau-	.	.
.	.	.	.	.	.	2cc\	-di-
4C/	-di-	4G/	-di-	4e\	-di-	.	.
=74-	=74	=74-	=74	=74-	=74	=74-	=74
1.F	-um;	1.A	-um:	1.f	-um:	1.cc,	-um
=75	=75	=75	=75	=75	=75	=75	=75
2E\	à	2G/	a	2c#X\	a	2ee\	A
2E\	mor-	2G/	mor-	2c#\	mor-	2ee\	mor-
2E\	-te	2G/	-te	2c#\	-te	2g/	-te
=76	=76	=76	=76	=76-	=76	=76	=76
1D	di-	1F	di-	1d	di-	1a	di-
2D\	-ra	2F/	-ra	2d,\	-ra	2a,\	-ra,
=77	=77	=77	=77	=77	=77	=77	=77
*	*ij	*	*ij	*	*	*	*
2C#X/	à	2A\	a	2e\	a	2a\	à
2C#/	mor-	2A\	mor-	2e\	mor-	2a\	mor-
2C#/	-te	2e\	-te	2g\	-te	2a\	-te
!	!	!	!	!	!	!LO:LB:g=original	!
=78	=78	=78	=78	=78-	=78	=78	=78
1D	di-	1d	di-	2.f\	di-	1a	di-
.	.	.	.	4e\	.	.	.
2D\	-ra	2A\	-ra	4d\	.	2a\	-ra
*	*Xij	*	*Xij	*	*	*	*
.	.	.	.	4c\	.	.	.
=79	=79	=79	=79	=79	=79	=79	=79
(4D\	di-	4F/	di-	1d	-ra	1a	di-
4C\	.	4E/	.	.	.	.	.
4D\)	.	4F/	.	.	.	.	.
4E\	.	4G/	.	.	.	.	.
2F\	-ra	2A\	-ra	2c/	.	1a\	-ra
!	!	!LO:LB:g=original	!	!	!	!	!
=80	=80	=80	=80	=80-	=80	=80-	=80
2C,/	.	2A\	Cri-	2c/	Cri-	.	.
2.E\	cri-	2.Bn\	-mi-	2.B/	.	2a\	Cri-
.	.	.	.	.	.	2g#X\	-mi-
!	!	!	!	!LO:TX:t=P:problem:custos z #	!	!	!
4E\	-mi-	4B\	-num,	4B/	-mi-	.	.
*	*	*	*	*custos:c	*	*	*
!	!	!	!	!LO:LB:g=original	!	!	!
=81-	=81	=81	=81	=81	=81	=81	=81
1AA,	-num	1c#X,	.	1c#X,	-num	1a,	-nu(m)
2F\	Vi-	2f\	Vi-	2a\	Vi-	2ccn\	Vi-
!LO:LB:g=original	!	!	!	!	!	!	!
=82	=82	=82	=82	=82	=82	=82	=82
2.F\	-tae	2.f\	-tae	2.a\	-tae	2cc\	-tae
.	.	.	.	.	.	2.a\	re-
4A\	.	4c\	.	4e\	.	.	.
2E\	re-	2e\	re-	2g\	re-	.	.
.	.	.	.	.	.	4bn\i	-na-
=83	=83	=83	=83	=83	=83	=83	=83
2.E\	-na-	2.e\	-na-	2.g\	-na-	2b\	.
.	.	.	.	.	.	2.g/	.
4G\	.	4B\	.	4d\	.	.	.
2D\	.	2d\	.	2f\	.	.	.
.	.	.	.	.	.	4a\	.
=84	=84	=84	=84	=84	=84	=84	=84
2.D\	.	2.d\	.	2.f\	.	2.a/	.
4F\	.	4A\	.	4c\	.	4f/	.
4C\	.	2c\	.	4e\	.	[2g/	.
4D\	.	.	.	4f\	.	.	.
=85	=85	=85	=85	=85	=85	=85	=85
!	!	!	!	!	!	!LO:N:xstem:cue	!
4E\	.	4B-X\	.	2.g\	.	4g/]	.
4F\	.	4A\	.	.	.	4a\	.
2.G\	.	1G	.	.	.	4b-X\	.
.	.	.	.	8f\L	.	4cc\	.
.	.	.	.	8e\J	.	.	.
.	.	.	.	4d\	.	2dd\	.
8F\L	.	.	.	4e\	.	.	.
8E\J	.	.	.	.	.	.	.
=86	=86	=86	=86	=86	=86	=86	=86
2D/	.	4A\	.	4f\	.	2a,\	-tos
.	.	4B\	.	4d\	.	.	.
4C/	.	2c\	-tos	4e\	.	2a\	re-
8BB/L	.	.	.	4f\	.	.	.
8AA/J	.	.	.	.	.	.	.
2GG/	.	2d\	.	2g\	.	2b-X\	-na-
=87	=87	=87-	=87	=87	=87	=87	=87
2D\	-tos	1d	li-	2f\	-tos	2a,\	-tos
2A\	li-	.	.	2.e\	li-	2.a\	li-
2AA/	-be-	2c#X\	-be-	.	.	.	.
.	.	.	.	4e\	-be-	4a\	-be-
=88-	=88	=88-	=88	=88-	=88	=88-	=88
1.D	-ra.	1.d	-ra	1.f#X	-ra	1.a;	-ra
=89||	=89||	=89||	=89||	=89||	=89||	=89||	=89||
1.G	A-	1.G	a-	1.d	a-	1.b-X	a-
=90	=90	=90-	=90	=90	=90	=90-	=90
0D;	-men	0F#X;	-men	0d;	-men	0a;	-men.
!LO:TX:b:rj:t=[[Deo Patri ut supra]]	!	!	!	!	!	!	!
==	==	==	==	==	==	==	==
*-	*-	*-	*-	*-	*-	*-	*-
!!!system-decoration: [s1,s2,s3,s4]
!!!RDF**kern: > = above
!!!RDF**kern: < = below
!!!RDF**kern: i = editorial accidental
!!!ENC: Andrzej Gręziak
!!!EED: Katarzyna Serwa
!!!END: 2024-04-12
!!!EEV: 2024-05-27
